X: 3
T: Barbados Bells
Z: bdh
S: https://thesession.org/tunes/9573#setting20051
R: polka
M: 2/4
L: 1/8
K: Dmaj
|: AB | d2 d2 | e2 de | f2 d2 | d2 ed |B2 e2 | ef ed | c2 A2 | A2 AB |d2 d2 | e2 de | f2 ed | c2 BA |B2 g2 | fe dc | d2-d2 | d2 :||: fg | a2 d2 | d2 fd | g2 e2 | e2 fg |f2 B2 | B2 cd | ef ed | c2 BA |a2 d2 | d2 fd | g2 e2 | e2 fg |f2 ed | e2 dB | d2-d2 | d2 :|
